X: 289
T: Sonate. MARCHE FUNÈBRE.	 Op. 35
C: Fryderyk Chopin
%%abc-version 2.0
%%abcx-abcm2ps-target-version 5.9.1 (29 Sep 2008)
%%abc-creator hum2abc beta
%%abcx-conversion-date 2021/10/03 11:24:03
%%abc-edited-by Zofia Niedbalska
%%abcx-initial-encoding-date 2020-05-27
%%humdrum-veritas 2099682432
%%humdrum-veritas-data 1195448744
%%linebreak <none>
%%barnumbers 0
L: 1/4
M: C
N: Derived from 035-1b-BH-003.krn
P: SONATE pour le Piano
%%staves {1 2}
V: 1 clef=treble
V: 2 clef=bass
K: Db
[V:1] B,B,/>B,/B,2 | 
[V:2] F,G,F,G, & [B,,F,,B,,,][D,G,,D,,][B,,F,,B,,,][D,G,,D,,] | 
[V:1] B,B,/>B,/B,2 | 
[V:2] F,G,F,G, & [B,,F,,B,,,][D,G,,D,,][B,,F,,B,,,][D,G,,D,,] | 
[V:1] B,B,/>B,/B,D3//C// | 
[V:2] F,G,F,G, & [B,,F,,B,,,][D,G,,D,,][B,,F,,B,,,][D,G,,D,,] | 
[V:1] C/>B,/B,/>B,/B,2 | 
[V:2] F,G,F,G, & [B,,F,,B,,,][D,G,,D,,][B,,F,,B,,,][D,G,,D,,] | 
[V:1] [DB,]D/>D/[DB,][F3//D3//][E//C//] & xB,x2 | 
[V:2] F,G,F,G, & [B,,F,,B,,,][D,G,,D,,][B,,F,,B,,,][D,G,,D,,] | 
[V:1] {/F} [E/C/]>[D/B,/][D/B,/]>[D/B,/][D2B,2] | 
[V:2] F,G,F,G, & [B,,F,,B,,,][D,G,,D,,][B,,F,,B,,,][D,G,,D,,] | 
[V:1] B/>A/{/A}G/>F/FD & [DB,][DB,][DB,][DB,] | 
[V:2] [B,,F,,B,,,][D,G,,D,,][B,,F,,B,,,][D,G,,D,,] | 
[V:1] B/>A/{/A}G/>F/FD & [DB,][DB,][DB,][DB,] | 
[V:2] [B,,F,,B,,,][D,G,,D,,][B,,F,,B,,,][D,G,,D,,] | 
[V:1] B,B,/>B,/B,D3//C// | 
[V:2] F,G,F,G, & [B,,F,,B,,,][D,G,,D,,][B,,F,,B,,,][D,G,,D,,] | 
[V:1] {/D} C/>B,/B,/>B,/B,2 | 
[V:2] F,G,F,G, & [B,,F,,B,,,][D,G,,D,,][B,,F,,B,,,][D,G,,D,,] | 
[V:1] d2x[dBD] & [b/B/][a/A/]{/A2d2a2}[g/G/]>[f/F/][fdF]x | 
[V:2] [B,,F,,B,,,][D,G,,D,,][B,,F,,B,,,][D,G,,D,,] | 
[V:1] d2x[dBD] & [b/B/][a/A/]{/A2d2a2}[g/G/]>[f/F/][fdF]x | 
[V:2] [B,,F,,B,,,][D,G,,D,,][B,,F,,B,,,][D,G,,D,,] | 
[V:1] [BB,][B/B,/]>[B/B,/][BB,][d3//D3//][c//C//] & FGFG | 
[V:2] [B,,F,,B,,,][D,G,,D,,][B,,F,,B,,,][D,G,,D,,] | 
[V:1] [c/C/]>[B/B,/][B/B,/]>[B/B,/][BB,][cAGC] & FGFx | 
[V:2] [B,,F,,B,,,][D,G,,D,,][B,,F,,B,,,]!accent![A,,A,,,] | 
[V:1] [dFD][f/d/F/]>[g/G/] [a/d/A/]>[b/B/] [c'3//a3//c3//][d'//d//] | 
[V:2] [D,,D,,,][D/A,/D,/]>E/ [F/A,/D,/]>G/ [A3//E3//A,3//]F// | 
[V:1] [f'2c'2-a2-f2][e'3/c'3/a3/e3/]z// [g//e//c//G//] | 
[V:2] [A,,A,,,][K:clef=treble][c/G/E/]>[B/G/D/] [B/G/D/]>[A/G/C/] [A3//G3//C3//][E//C//=A,//][K:clef=bass] | 
[V:1] [fecF][f/d/B/F/]>[=g/=G/] [=a/f/d/=A/]>[b/B/] [c'3//f3//c3//][d'//d//] | 
[V:2] [B,,B,,,][DB,F,][D,D,,][FDB,F,] | 
[V:1] !arpeggio![d'2=g2=e2B2][c'fc]z | 
[V:2] [F,,F,,,][=GDB,F,][=AC=A,F,]!accent!F, | 
[V:1] [_AC_A,_G,][ACA,G,][ADF,]z & FEx2 | 
[V:2] {/=G,,A,,}!trill!A,,2{/G,,A,,}D,!accent!D, | 
[V:1] [F=A,E,][FA,E,][B,2D,2] & DCx2 | 
[V:2] {/=E,,F,,}!trill!_G,,2{/E,,F,,}!accent!G,,F,,/D,,/ | 
[V:1] B,B,/>B,/B,D3//C// | 
[V:2] F,G,F,G, & [B,,B,,,][D,G,,D,,][B,,F,,B,,,][D,G,,D,,] | 
[V:1] {/D} C/>B,/B,/>B,/[B,F,][D3//__A,3//_F,3//][E//C//G,//] | 
[V:2] F,G,x2 & [B,,F,,B,,,][D,G,,D,,][B,,F,,B,,,][__B,,3//__B,,,3//][A,,//A,,,//] | 
[V:1] [FDF,][f/d/F/]>[g/G/] [a/d/A/]>[b/B/] [c'3//a3//c3//][d'//d//] | 
[V:2] [D,,D,,,][D/A,/D,/]>E/ [F/A,/D,/]>G/ [A3//E3//A,3//]F// | 
[V:1] [f'2c'2-a2-f2][e'3/c'3/a3/e3/]z// [g//e//c//G//] | 
[V:2] [A,,A,,,][K:clef=treble][c/G/E/]>[B/G/D/] [B/G/D/]>[A/G/C/] [A3//G3//C3//][E//C//=A,//][K:clef=bass] | 
[V:1] [fecF][f/d/B/F/]>[=g/=G/] [=a/f/d/=A/]>[b/B/] [c'3//f3//c3//][d'//d//] | 
[V:2] [B,,B,,,][DB,F,][D,D,,][FDB,F,] | 
[V:1] !arpeggio![d'2=g2=e2B2][c'fc]z | 
[V:2] [F,,F,,,][=GDB,F,][=AC=A,F,]!accent!F, | 
[V:1] [_AC_A,_G,][ACA,G,][ADF,]z & FEx2 | 
[V:2] {/=G,,A,,}!trill!A,,2{/G,,A,,}D,!accent!D, | 
[V:1] [F=A,E,][FA,E,][B,2D,2] & DCx2 | 
[V:2] {/=E,,F,,}!trill!_G,,2{/E,,F,,}!accent!G,,F,,/D,,/ | 
[V:1] [B,F,]B,/>B,/B,D3//C// | 
[V:2] xG,F,G, & [B,,B,,,][D,G,,D,,][B,,F,,B,,,][D,G,,D,,] | 
[V:1] {/D} C/>B,/B,/>B,/[B,F,]z ]|:  
[V:2] F,G,x2 & [B,,F,,B,,,][D,G,,D,,][D,F,,B,,,][A,,A,,,] ]|:  
[V:1] f2g/f/e/d/ | 
[V:2] D,,/A,,/F,/D/ D,,/A,,/F,/D/ | 
[V:1] cba2 | 
[V:2] E,,/A,,/G,/C/ E,,/A,,/G,/C/ | 
[V:1] g2a/g/f/e/ | 
[V:2] A,,,/A,,/G,/C/ A,,,/A,,/G,/C/ | 
[V:1] dd'a2 | 
[V:2] D,,/A,,/F,/D/ D,,/A,,/F,/D/ | 
[V:1] f2g/f/e/=d/ | 
[V:2] D,,/A,,/F,/D/ B,,,/B,,/A,/=D/ | 
[V:1] !mordent!e/=d/e/f/ g/B/f/e/ | 
[V:2] E,,/B,,/G,/E/ G,,/E,/B,/E/ | 
[V:1] {/cd}!trill!d2{/cd} b/a/g/A/ | 
[V:2] =G,,/=E,/D/B/ A,,/_E,/C/_G/ | 
[V:1] e2dz :||:  
[V:2] A,,,/A,,/G,/C/ D,,/A,,/F,/D/ :||:  
[V:1] c2d/c/B/A/ | 
[V:2] A,,,/A,,/E,/C/ A,,,/A,,/E,/C/ | 
[V:1] =Gfe2 | 
[V:2] B,,,/B,,/E,/D/ B,,,/B,,/E,/D/ | 
[V:1] d2e/d/c/B/ | 
[V:2] B,,,/B,,/=E,/D/ B,,,/B,,/E,/D/ | 
[V:1] =Agf2 | 
[V:2] C,,/C,/G,/E/ C,,/C,/F,/E/ | 
[V:1] f2g/f/e/d/ | 
[V:2] D,,/D,/B,/F/ D,,/D,/B,/F/ | 
[V:1] dcz/ c/{/e}d3//c// | 
[V:2] E,,/E,/B,/G/ F,,/F,/B,/F/ | 
[V:1] cBz/ c/{/e}d3//c// | 
[V:2] G,,/G,/B,/E/ G,,/G,/B,/=E/ | 
[V:1] cfgA | 
[V:2] F,,/C,/=A,/F/ E,,/E,/_A,/[G/C/] | 
[V:1] f2g/f/e/d/ | 
[V:2] D,,/A,,/F,/D/ D,,/A,,/F,/D/ | 
[V:1] cba2 | 
[V:2] E,,/A,,/G,/C/ E,,/A,,/G,/C/ | 
[V:1] g2a/g/f/e/ | 
[V:2] A,,,/A,,/G,/C/ A,,,/A,,/G,/C/ | 
[V:1] dd'a2 | 
[V:2] D,,/A,,/F,/D/ D,,/A,,/F,/D/ | 
[V:1] f2g/f/e/=d/ | 
[V:2] D,,/A,,/F,/D/ B,,,/B,,/A,/=D/ | 
[V:1] !mordent!e/=d/e/f/ g/B/f/e/ | 
[V:2] E,,/B,,/G,/E/ G,,/E,/B,/E/ | 
[V:1] {/cd}!trill!d2{/cd} b/a/g/A/ |[1 
[V:2] =G,,/=E,/D/B/ A,,/_E,/C/_G/ | 
[V:1] e2dz :|][2 
[V:2] A,,,/A,,/G,/C/ D,,/A,,/F,/D/ :|]  
[V:1] e2dz || 
[V:2] A,,,/A,,/G,/C/[DF,D,]z ||  
[V:1] B,B,/>B,/B,2 | 
[V:2] F,G,F,G, & [B,,F,,B,,,][D,G,,D,,][B,,F,,B,,,][D,G,,D,,] | 
[V:1] B,B,/>B,/B,2 | 
[V:2] F,G,F,G, & [B,,F,,B,,,][D,G,,D,,][B,,F,,B,,,][D,G,,D,,] | 
[V:1] B,B,/>B,/B,D3//C// | 
[V:2] F,G,F,G, & [B,,F,,B,,,][D,G,,D,,][B,,F,,B,,,][D,G,,D,,] | 
[V:1] C/>B,/B,/>B,/B,2 | 
[V:2] F,G,F,G, & [B,,F,,B,,,][D,G,,D,,][B,,F,,B,,,][D,G,,D,,] | 
[V:1] [DB,]D/>D/[DB,][F3//D3//][E//C//] & xB,x2 | 
[V:2] F,G,F,G, & [B,,F,,B,,,][D,G,,D,,][B,,F,,B,,,][D,G,,D,,] | 
[V:1] {/F} [E/C/]>[D/B,/][D/B,/]>[D/B,/][D2B,2] | 
[V:2] F,G,F,G, & [B,,F,,B,,,][D,G,,D,,][B,,F,,B,,,][D,G,,D,,] | 
[V:1] B/>A/{/A}G/>F/FD & [DB,][DB,][DB,][DB,] | 
[V:2] [B,,F,,B,,,][D,G,,D,,][B,,F,,B,,,][D,G,,D,,] | 
[V:1] B/>A/{/A}G/>F/FD & [DB,][DB,][DB,][DB,] | 
[V:2] [B,,F,,B,,,][D,G,,D,,][B,,F,,B,,,][D,G,,D,,] | 
[V:1] B,B,/>B,/B,D3//C// | 
[V:2] F,G,F,G, & [B,,F,,B,,,][D,G,,D,,][B,,F,,B,,,][D,G,,D,,] | 
[V:1] {/D} C/>B,/B,/>B,/B,2 | 
[V:2] F,G,F,G, & [B,,F,,B,,,][D,G,,D,,][B,,F,,B,,,][D,G,,D,,] | 
[V:1] [b/B/][a/A/]{/A2d2a2}[g/G/]>[f/F/][fdF][dBD] & d2x2 | 
[V:2] [B,,F,,B,,,][D,G,,D,,][B,,F,,B,,,][D,G,,D,,] | 
[V:1] [b/B/][a/A/]{/A2d2a2}[g/G/]>[f/F/][fdF][dBD] & d2x2 | 
[V:2] [B,,F,,B,,,][D,G,,D,,][B,,F,,B,,,][D,G,,D,,] | 
[V:1] [BB,][B/B,/]>[B/B,/][BB,][d3//D3//][c//C//] & FGFG | 
[V:2] [B,,F,,B,,,][D,G,,D,,][B,,F,,B,,,][D,G,,D,,] | 
[V:1] [c/C/]>[B/B,/][B/B,/]>[B/B,/][BB,][cAG] & FGFC | 
[V:2] [B,,F,,B,,,][D,G,,D,,][B,,F,,B,,,]!accent![A,,A,,,] | 
[V:1] [dFD][f/d/F/]>[g/G/] [a/d/A/]>[b/B/] [c'3//a3//c3//][d'//d//] | 
[V:2] [D,,D,,,][D/A,/D,/]>E/ [F/A,/D,/]>G/ [A3//E3//A,3//]F// | 
[V:1] [f'2c'2-a2-f2][e'3/c'3/a3/e3/]z// [g//e//c//G//] | 
[V:2] [A,,A,,,][K:clef=treble][c/G/E/]>[B/G/D/] [B/G/D/]>[A/G/C/] [A3//G3//C3//][E//C//=A,//][K:clef=bass] | 
[V:1] [fecF][f/d/B/F/]>[=g/=G/] [=a/f/d/=A/]>[b/B/] [c'3//f3//c3//][d'//d//] | 
[V:2] [B,,B,,,][DB,F,][D,D,,][FDB,F,] | 
[V:1] !arpeggio![d'2=g2=e2B2][c'fc]z | 
[V:2] [F,,F,,,][=GDB,F,][=AC=A,F,]!accent!F, | 
[V:1] [_AC_A,_G,][ACA,G,][ADF,]z & FEx2 | 
[V:2] {/=G,,A,,}!trill!A,,2{/G,,A,,}D,!accent!D, | 
[V:1] [F=A,E,][FA,E,][B,2D,2] & DCx2 | 
[V:2] {/=E,,F,,}!trill!_G,,2{/E,,F,,}!accent!G,,F,,/D,,/ | 
[V:1] [B,F,]B,/>B,/B,D3//C// | 
[V:2] xG,F,G, & [B,,B,,,][D,G,,D,,][B,,F,,B,,,][D,G,,D,,] | 
[V:1] {/D} C/>B,/B,/>B,/[B,F,][D3//__A,3//_F,3//][E//C//G,//] | 
[V:2] F,G,xx & [B,,F,,B,,,][D,G,,D,,][B,,F,,B,,,][__B,,3//__B,,,3//][A,,//A,,,//] | 
[V:1] [FDF,][f/d/F/]>[g/G/] [a/d/A/]>[b/B/] [c'3//a3//c3//][d'//d//] | 
[V:2] [D,,D,,,][D/A,/D,/]>E/ [F/A,/D,/]>G/ [A3//E3//A,3//]F// | 
[V:1] [f'2c'2-a2-f2][e'3/c'3/a3/e3/]z// [g//e//c//G//] | 
[V:2] [A,,A,,,][K:clef=treble][c/G/E/]>[B/G/D/] [B/G/D/]>[A/G/C/] [A3//G3//C3//][E//C//=A,//][K:clef=bass] | 
[V:1] [fecF][f/d/B/F/]>[=g/=G/] [=a/f/d/=A/]>[b/B/] [c'3//f3//c3//][d'//d//] | 
[V:2] [B,,B,,,][DB,F,][D,D,,][FDB,F,] | 
[V:1] !arpeggio![d'2=g2=e2B2][c'fc]z | 
[V:2] [F,,F,,,][=GDB,F,][=AC=A,F,]!accent!F, | 
[V:1] [_AC_A,_G,][ACA,G,][ADF,]z & FEx2 | 
[V:2] {/=G,,A,,}!trill!A,,2{/G,,A,,}D,!accent!D, | 
[V:1] [F=A,E,][FA,E,][B,2D,2] & DCx2 | 
[V:2] {/=E,,F,,}!trill!_G,,2{/E,,F,,}!accent!G,,F,,/D,,/ | 
[V:1] [B,F,]B,/>B,/B,D3//C// | 
[V:2] xG,F,G, & [B,,B,,,][D,G,,D,,][B,,F,,B,,,][D,G,,D,,] | 
[V:1] {/D} C/>B,/B,/>B,/!accent!!fermata![B,2F,2D,2] |]  
[V:2] F,G,x2 & [B,,F,,B,,,][D,G,,D,,]!fermata![F,,2B,,,2] |]
